fe/src/assets/images/icons/home.svg

<svg width="24" height="25" viewBox="0 0 24 25" fill="none" xmlns="http://www.w3.org/2000/svg">
<path fill-rule="evenodd" clip-rule="evenodd" d="M19.5282 8.48621L13.7682 4.00589C12.7285 3.19661 11.2722 3.19661 10.2315 4.00589L4.47154 8.48621C3.76978 9.03245 3.35986 9.87149 3.35986 10.7595V17.7992C3.35986 19.3899 4.64914 20.6792 6.23986 20.6792H17.7599C19.3506 20.6792 20.6399 19.3899 20.6399 17.7992V10.7595C20.6399 9.87149 20.2299 9.03245 19.5282 8.48621Z" stroke="#666666" stroke-width="1.5"/>
</svg>

<svg xmlns="http://www.w3.org/2000/svg" width="24" height="25" fill="none"><path stroke="#666" stroke-width="1.5" d="m19.528 8.486-5.76-4.48a2.88 2.88 0 0 0-3.537 0l-5.76 4.48A2.881 2.881 0 0 0 3.36 10.76v7.04a2.88 2.88 0 0 0 2.88 2.88h11.52a2.88 2.88 0 0 0 2.88-2.88v-7.04c0-.888-.41-1.727-1.112-2.273Z" clip-rule="evenodd"/></svg>
